Numix-GalliumOS/24/status/airplane-mode.svg

<?xml version="1.0" encoding="UTF-8" standalone="no"?>
<!-- Created with Inkscape (http://www.inkscape.org/) -->

<svg
   xmlns:dc="http://purl.org/dc/elements/1.1/"
   xmlns:cc="http://creativecommons.org/ns#"
   xmlns:rdf="http://www.w3.org/1999/02/22-rdf-syntax-ns#"
   xmlns:svg="http://www.w3.org/2000/svg"
   xmlns="http://www.w3.org/2000/svg"
   xmlns:sodipodi="http://sodipodi.sourceforge.net/DTD/sodipodi-0.dtd"
   xmlns:inkscape="http://www.inkscape.org/namespaces/inkscape"
   width="24"
   height="24"
   viewBox="0 0 24 24"
   id="SVGRoot"
   version="1.1"
   inkscape:version="0.91 r"
   sodipodi:docname="airplane-mode.svg">
  <sodipodi:namedview
     id="base"
     pagecolor="#ffffff"
     bordercolor="#666666"
     borderopacity="1.0"
     inkscape:pageopacity="0.0"
     inkscape:pageshadow="2"
     inkscape:zoom="8"
     inkscape:cx="7.17299"
     inkscape:cy="4.5036232"
     inkscape:document-units="px"
     inkscape:current-layer="layer1"
     showgrid="true"
     inkscape:window-width="1918"
     inkscape:window-height="971"
     inkscape:window-x="0"
     inkscape:window-y="34"
     inkscape:window-maximized="0"
     inkscape:grid-bbox="true">
    <inkscape:grid
       type="xygrid"
       id="grid29213" />
  </sodipodi:namedview>
  <defs
     id="defs28337">
    <clipPath
       id="clipPath-408241621">
      <g
         id="g3616"
         transform="translate(0,-1004.3622)">
        <path
           id="path3618"
           transform="matrix(15.333333,0,0,11.5,414.99999,878.8622)"
           d="m -24,13 c 0,1.105 -0.672,2 -1.5,2 -0.828,0 -1.5,-0.895 -1.5,-2 0,-1.105 0.672,-2 1.5,-2 0.828,0 1.5,0.895 1.5,2 z"
           inkscape:connector-curvature="0"
           style="fill:#1890d0" />
      </g>
    </clipPath>
    <clipPath
       id="clipPath-408241621-1">
      <g
         id="g3616-3"
         transform="translate(0,-1004.3622)">
        <path
           id="path3618-3"
           transform="matrix(15.333333,0,0,11.5,414.99999,878.8622)"
           d="m -24,13 c 0,1.105 -0.672,2 -1.5,2 -0.828,0 -1.5,-0.895 -1.5,-2 0,-1.105 0.672,-2 1.5,-2 0.828,0 1.5,0.895 1.5,2 z"
           inkscape:connector-curvature="0"
           style="fill:#1890d0" />
      </g>
    </clipPath>
  </defs>
  <metadata
     id="metadata28340">
    <rdf:RDF>
      <cc:Work
         rdf:about="">
        <dc:format>image/svg+xml</dc:format>
        <dc:type
           rdf:resource="http://purl.org/dc/dcmitype/StillImage" />
        <dc:title></dc:title>
      </cc:Work>
    </rdf:RDF>
  </metadata>
  <g
     id="layer1"
     inkscape:groupmode="layer"
     inkscape:label="Layer 1"
     transform="translate(0,-24)">
    <path
       style="fill:#71a6ce;fill-opacity:1;stroke:none;stroke-width:1;stroke-opacity:0.3492823"
       d="m 20.569784,27.430216 c -0.573619,-0.573618 -2.121336,0 -3.649531,1.528195 L 14.674321,31.204343 5.0195166,29.166937 C 4.3246805,29.035869 4.1247731,29.031961 3.77457,29.376075 2.9527208,30.197956 2.9522347,30.198048 4.3041193,30.981673 L 11.321288,34.557376 7.4572328,38.42143 4.4050146,37.835889 C 4.0478292,37.760622 4.053955,37.733996 3.8301858,37.957724 l -0.2214205,0.22142 c -0.337483,0.337483 0.1687926,0.737195 0.1687926,0.737195 l 3.1431469,2.162957 2.162956,3.143146 c 0,0 0.399712,0.506276 0.737195,0.168793 l 0.2214202,-0.22142 c 0.223729,-0.22377 0.197102,-0.217644 0.121836,-0.574829 l -0.5855422,-3.052219 3.8640552,-3.864055 3.575702,7.017169 c 0.783624,1.351883 0.783718,1.351398 1.605598,0.529549 0.344118,-0.350199 0.340205,-0.550111 0.209138,-1.244947 l -2.037405,-9.654804 2.245931,-2.245931 c 1.528195,-1.528195 2.101813,-3.075913 1.528195,-3.649532 z"
       id="path27922"
       inkscape:connector-curvature="0"
       sodipodi:nodetypes="ssccccccccscccsccccccccss" />
  </g>
</svg>

<svg xmlns="http://www.w3.org/2000/svg" viewBox="0 0 24 24">
 <g transform="translate(0,-24)">
  <path d="m 20.57 27.43 c -0.574 -0.574 -2.121 0 -3.65 1.528 l -2.246 2.246 -9.655 -2.037 c -0.695 -0.131 -0.895 -0.135 -1.245 0.209 -0.822 0.822 -0.822 0.822 0.53 1.606 l 7.02 3.576 -3.864 3.864 -3.052 -0.586 c -0.357 -0.075 -0.351 -0.102 -0.575 0.122 l -0.221 0.221 c -0.337 0.337 0.169 0.737 0.169 0.737 l 3.143 2.163 2.163 3.143 c 0 0 0.4 0.506 0.737 0.169 l 0.221 -0.221 c 0.224 -0.224 0.197 -0.218 0.122 -0.575 l -0.586 -3.052 3.864 -3.864 3.576 7.02 c 0.784 1.352 0.784 1.351 1.606 0.53 0.344 -0.35 0.34 -0.55 0.209 -1.245 l -2.037 -9.655 2.246 -2.246 c 1.528 -1.528 2.102 -3.076 1.528 -3.65 z" style="fill:#71a6ce;fill-opacity:1;stroke:none"/>
 </g>
</svg>
